packages/foundations/assets/icons/functional/images/notification/information_circle_14.svg

<svg width="14" height="14" viewBox="0 0 14 14" fill="none" xmlns="http://www.w3.org/2000/svg">
<g clip-path="url(#clip0_187_195)">
<path fill-rule="evenodd" clip-rule="evenodd" d="M7.00002 1.39999C10.0844 1.39999 12.6 3.91565 12.6 6.99999C12.6 10.0843 10.0844 12.6 7.00002 12.6C3.91565 12.6 1.40002 10.0843 1.40002 6.99999C1.40002 3.91565 3.91565 1.39999 7.00002 1.39999ZM7.00002 2.79999C4.68127 2.79999 2.80002 4.68124 2.80002 6.99999C2.80002 9.31874 4.68127 11.2 7.00002 11.2C9.31877 11.2 11.2 9.31874 11.2 6.99999C11.2 4.68124 9.31877 2.79999 7.00002 2.79999ZM7.70002 5.59999V8.39999H9.10002V9.79999H4.90002V8.39999H6.30002V6.99999H5.14065V5.59999H7.70002ZM7.00002 3.54374C7.41565 3.54374 7.7219 3.84999 7.7219 4.26565C7.7219 4.68124 7.41565 4.98749 7.00002 4.98749C6.5844 4.98749 6.27815 4.68124 6.27815 4.26565C6.27815 3.84999 6.5844 3.54374 7.00002 3.54374Z" fill="#1A1C1F"/>
</g>
<defs>
<clipPath id="clip0_187_195">
<rect width="14" height="14" fill="white"/>
</clipPath>
</defs>
</svg>

<svg xmlns="http://www.w3.org/2000/svg" width="14" height="14" fill="none"><g clip-path="url(#a)"><path fill="#1A1C1F" fill-rule="evenodd" d="M7 1.4A5.61 5.61 0 0 1 12.6 7 5.61 5.61 0 0 1 7 12.6 5.61 5.61 0 0 1 1.4 7 5.61 5.61 0 0 1 7 1.4m0 1.4a4.201 4.201 0 0 0 0 8.4 4.201 4.201 0 0 0 0-8.4m.7 2.8v2.8h1.4v1.4H4.9V8.4h1.4V7H5.14V5.6zM7 3.544c.416 0 .722.306.722.722A.7.7 0 0 1 7 4.987a.7.7 0 0 1-.722-.721c0-.416.306-.722.722-.722" clip-rule="evenodd"/></g><defs><clipPath id="a"><path fill="#fff" d="M0 0h14v14H0z"/></clipPath></defs></svg>
